X:35
T:Italian Dance. WM.035
M:2/4
L:1/16
Q:1/4=100
S:Wm.Mittell’s MS, New Romney,Kent,1799
R:.Cotillion
O:England
A:Kent
Z:vmp.Chris Partington
K:D
a2af d2d2|A2A2B2A2|a2af d2d2|edef d4:|!
|:e2eg f2a2|e2eg f2a2|ABcA defg|fedc d4:|!
|:FAFA GBE2|EGEG FAF2|FAFA GBGB|AGFE D4:|

